X:170
T:Ladies Pleasure - Bledington
M:6/8
L:1/8
K:G
d | g2 g B2 c | d2 B G2 D | G>GG ABc | B2 A A2 d |
g2 g B2 c | d2 B G2 D | G>GG ABc | B2A G3 ||
AAA cBc | AAA cBc | A>Bc def | gfe d2 d |
g2 g B2 c | d2 B G2 D | G>GG ABc | B2A G3 ||
d3 | g3 g3 | B3 c3 | d2 c B2 A | G2 D |
GGG ABc | B2 A A3 | d3 | g3 g3 | B3 c3 |
d2 c B2 A | G2 D | GGG ABc | B2 A G3 ||
